X: 11130
T: Duke Of Leinster, The
R: reel
M: 4/4
K: Gmajor
|:G3B d~B3|dgeB dBAB|G3B dB3|dBAB GEDE|
G3B d~B3|dgeB dBAB|G~B3 d~B3|dBAB GEDE:|
|:dega bg (3ggg|agbg ageg|dega bage|dBAB GEDE|
dega bg (3ggg|agbg agef|g2fg efge|dBAB GEDE:|

